X:1
T:Title
%%score { ( 1 3 4 ) | ( 2 5 ) }
L:1/8
M:2/4
K:Eb
V:1 treble nm="Grand Piano"
V:3 treble 
V:4 treble 
V:2 bass 
V:5 bass 
V:1
 z2[Q:1/4=100] c>A | B>G A>F | G>E F>D | E4- | E2 z2 | E4 | D4 | C4- |[M:1/4] C2 | z2 | %10
[M:2/4] B>G A>F | G>E F>D | E4- | E2 z2 | E4 | D4 | C4 | z4 | [CEGc]2 [Gce]2 | d4- | d4- | d2 z2 | %22
 [G=B]2 [Fd]2 | [EGc]4- | [EGc]4- | [EGc]2 z2 | [CEGc]2 [Gce]2 | d4- | d4- | d2 z2 | [G=B]2 [Fd]2 | %31
 z4 | z4 | C2 c>c | [FA]->[F-A-c] [F-A-c]>[FAB] | A>G z z/ D/ | [CE]4 | D4 | C4- |[M:1/4] C2 |] %40
V:2
 z4 | C,2 [F,A,]2 | [C,E,G,]2 [G,,D,F,]2 | C,2 E,>F, | G,2 C>D | C,2 E,2 | G,,2 [=B,,D,]2 | %7
 C,2 E,>G, |[M:1/4] C,2 | c>A |[M:2/4][K:bass] C,2 [F,A,]2 | [C,E,G,]2 [G,,D,F,]2 | C,2 E,>F, | %13
 G,2 C>D | C,2 E,2 | G,,2 [=B,,D,]2 | C,2 E,>G, | C2 G>G | z z/ d/ z z/[K:treble] c/ | %19
 G,,2 G,,>A,, | =B,,2 D,2 | G,2[K:treble] G>G | z z/ c/[K:bass] z z/ =B/ | C,2 C,>D, | E,2 G,2 | %25
 C,2[K:treble] G>G | z z/ d/ z z/[K:treble] c/ | G,,2 G,,>A,, | =B,,2 D,2 | G,2[K:treble] G>G | %30
 z z/ c/[K:bass] z z/ =B/ | C,2 C,>D, | E,2 G,2 | C,2 C>C | z z/ C/ C>B, | %35
 [F,CF]->[F,G,C-F] C->[D,C] | C,2 E,2 | G,,2 F,2 | [C,E,G,]4- |[M:1/4] [C,E,G,]2 |] %40
V:3
 x4 | x4 | x4 | C4 | x4 | z2 z C | z2 z =B, | x4 |[M:1/4] x2 | x2 |[M:2/4] x4 | x4 | C4 | x4 | %14
 z2 z C | z2 z =B, | x4 | x4 | x4 | [FG=B]4- | [FGB]4 | x4 | x4 | x4 | x4 | C2 z2 | x4 | [FG=B]4- | %28
 [FGB]4 | x4 | x4 | [EGc]4- | [EGc]4- | [EGc]2 z2 | [Cc]2 z2 | z2 F2 | z2 z C | z2 z =B, | x4 | %39
[M:1/4] x2 |] %40
V:4
 x4 | x4 | x4 | x4 | x4 | z2 G,2 | z2 F,2 | x4 |[M:1/4] x2 | x2 |[M:2/4] x4 | x4 | x4 | x4 | %14
 z2 G,2 | z2 F,2 | x4 | x4 | x4 | x4 | x4 | x4 | x4 | x4 | x4 | x4 | x4 | x4 | x4 | x4 | x4 | x4 | %32
 x4 | x4 | x4 | x4 | z2 G,2 | z2 A,2 | x4 |[M:1/4] x2 |] %40
V:5
 x4 | x4 | x4 | x4 | x4 | x4 | x4 | x4 |[M:1/4] x2 | x2 |[M:2/4][K:bass] x4 | x4 | x4 | x4 | x4 | %15
 x4 | x4 | x4 | C,2 [C,C]2[K:treble] | x4 | x4 | x2[K:treble] x2 | D,2[K:bass] G,,2 | x4 | x4 | %25
 x2[K:treble] x2 | C,2 [C,C]2[K:treble] | x4 | x4 | x2[K:treble] x2 | D,2[K:bass] G,,2 | x4 | x4 | %33
 x4 | [F,A,]4 | A,2 F,2 | x4 | x4 | x4 |[M:1/4] x2 |] %40

